X:008
T:I will gang no more to yon Town TS.008
T:Devil in a Bush,The,aka TS.008
T:England’s Glory,aka TS.008
T:Mayday,aka TS.008
T:Duke of Sussex’s Reel,aka TS.008
T:Mr.Small’s Favourite Reel,aka TS.008
M:2/4
L:1/8
Q:1/2=60
S:Thomas Sands’ MS,1810,Lincolnshire
R:reel
O:England;Lincolnshire
Z:vmp.Ruairidh Greig, 2011
K:A
eaaec2A2|ceAc dBB2|agaec2A2|ceBd cAA2:|
|:cAeA fAeA|cAeA dBB2|cAeA fAeA|ceBd cAA2:|]

